X:1
T:Katie Grey's Welcome from Scotland
M:3/4
L:1/8
Q:80
C:Michael Grey
S:March
K:HP
|: {g}f3/2e/2{Gdc}d2{gdc}dA | \
{gBd}B{e}G{g}A2{GAG}A2 | \
{g}de/2f/2{gf}g2{fg}fa |
{f}g3/2f/2{gef}e2{A}e2 | \
a3/2g/2{ag}a3f | \
{gef}e3/2d/2{gBd}B2{G}A2 |
{g}d3/2B/2{g}A2{GAG}Af | \
{gef}e3/2c/2{Gdc}d2{gdG}d2 :: \
a3/2g/2{ag}a3f |
{gf}ga{fg}f2{Gdc}d2 | \
a3/2g/2{ag}a3f | \
{gf}g3/2f/2{gef}e2{A}e2 |
af/2e/2{g}f2{Gdc}d2 | \
{gef}e3/2d/2{gBd}B2{G}A2 | \
{g}d3/2B/2{g}A2{GAG}Af |
{gef}e3/2c/2{Gdc}d2{gdG}d2 :|
